X:56
T:Man Of The House, The
S:The Session: https://thesession.org/tunes/222#setting55363
C:Traditional
R:reel
K:Em
M:4/4
L:1/8
Q:1/4=120
|: "Em"E2BE GABG| E2BE "D"FDAD| "Em"E2BE GABc|1 "G"dBAF "D"BAGF:|2 "G"dBAF "D"BEE2|]
|"Em"efge "D"fgaf|"C"gfed "D"edBd|"Em"e2ge "D"f2af|"C"gfed "D"Beed|
|"Em"e2ge "D"f2af|"C"gfed "C"efga|"G"bgaf "D"gfed|"C"edBA "D"GEED|]

